X: 22121
T: Korolenko
R: reel
M: 4/4
K: Gmajor
G2GE|:D2B,D G,DB,D|GEDB, DDGA|BBBA GABG|AGFA GFEF|GDGE D2B,D|
GEDB, D2GA|1 BcBA BAGB|AGFA G2 GE:|2 B2BA GABG|AGFA GFGA||
BG (3GGG DGDG|B,DGA BGAB|cA (3AAA FAFA|DFAB cAFA|
BG (3GGG DGDG|B,DGA BGAB|cAFA BGDG|1 AFDF GFGA:|2 AFDF G2GE||

